packages/icons/src/money-icon.svg

<svg fill="none" viewBox="0 0 34 31" xmlns="http://www.w3.org/2000/svg"><ellipse fill="#eff2f4" rx="15.5165" ry="2.31097" transform="matrix(1 0 0 -1 15.5165 27.9595)"/><rect fill="#629d00" height="12.1968" rx="4" stroke="#629d00" width="25.0905" x="1.32056" y="15.0841"/><rect fill="#69c800" height="12.1968" rx="4" width="25.0905" x="1.32056" y="15.0841"/><rect fill="#aade63" height="9.68568" rx="4" width="22.9997" x="2.50513" y="16.4476"/><path clip-rule="evenodd" d="m6.22638 15.5146c-2.20914 0-4 1.7909-4 4v.78c.06684-2.1505 1.83124-3.8734 3.99804-3.8734h15.34778c2.2092 0 4 1.7909 4 4v3.7304c.0013-.042.002-.0842.002-.1265v-4.5105c0-2.2091-1.7909-4-4-4z" fill="#d6f4bc" fill-rule="evenodd"/><g fill="#7ace00"><ellipse cx="5.92016" cy="21.3074" rx="1.39392" ry="1.43492"/><ellipse cx="22.0898" cy="21.2734" rx="1.39392" ry="1.43492"/><ellipse cx="14.1441" cy="21.3984" rx="3.4848" ry="3.58729"/></g><path clip-rule="evenodd" d="m15.9689 21.7227c-.0384-.1143-.0961-.2211-.1729-.3202s-.1728-.1867-.288-.2668c-.1153-.0762-.2497-.1372-.4033-.1829-.0615-.0153-.1652-.0419-.3073-.0762-.1345-.0343-.2804-.0687-.4302-.1068s-.2842-.0724-.4072-.1029c-.119-.0305-.1882-.0457-.2074-.0495-.1651-.0458-.2996-.1106-.4033-.1982-.1037-.0877-.1536-.2097-.1536-.3621 0-.1105.0269-.202.0807-.2744.0537-.0725.1229-.1296.2074-.1754.0845-.0419.1767-.0724.2765-.0914.0999-.0191.1997-.0305.2958-.0305.2842 0 .5185.0571.7029.1753.1843.1143.288.3163.3111.5946h.8219c0-.2287-.0499-.4307-.1459-.6022-.096-.1716-.2266-.3202-.3918-.4384-.1651-.1181-.3572-.2058-.5723-.2668-.0922-.0228-.1882-.0381-.2881-.0533v-.4155c0-.2096-.1728-.3811-.3841-.3811-.2112 0-.3841.1715-.3841.3811v.4117c-.0883.0114-.1766.0266-.2611.0495-.2074.0496-.3918.1296-.5531.2325-.1614.1067-.2919.2401-.3918.4002-.0999.1639-.1498.3545-.1498.5717 0 .1144.0154.2249.0499.3355.0346.1105.0884.2134.169.3125.0807.0991.1844.1868.3188.2668.1345.08.3035.1448.5032.1944.3265.08.5992.1448.822.1982.2227.0495.4148.1067.5838.1601.096.0343.184.0876.2646.1677.0811.08.1233.2024.1233.3697 0 .08-.0192.1601-.0538.2401-.0345.0801-.0921.1491-.1728.2097-.0807.0609-.1805.1105-.3111.1486-.1268.0381-.2804.0572-.4609.0572-.1652 0-.3227-.0191-.4648-.0534s-.2689-.0915-.3802-.1635c-.1114-.0766-.1959-.1719-.2574-.2901-.0614-.1181-.0922-.2591-.0922-.4265h-.8181c.0038.2707.0576.5028.1652.701.1037.1982.2458.3583.4225.484.1767.1258.3802.2211.6184.2821.1037.027.2151.0457.3264.061v.4154c0 .2097.1729.3812.3841.3812.2113 0 .3841-.1715.3841-.3812v-.4002c.1153-.0114.2343-.0305.3457-.0572.2228-.0495.4225-.1296.5992-.2401s.3188-.2515.426-.4231c.1079-.1711.1617-.3811.1617-.625 0-.1178-.0192-.2325-.0576-.3469z" fill="#fff" fill-rule="evenodd"/><rect fill="#629d00" height="11.9776" rx="4" stroke="#629d00" transform="matrix(.93358043 .35836795 -.35836795 .93358043 3.06957 -1.888755)" width="25.1192" x="6.63019" y="7.33658"/><rect fill="#69c800" height="11.9776" rx="4" transform="matrix(.93358043 .35836795 -.35836795 .93358043 3.06957 -1.888755)" width="25.1192" x="6.63019" y="7.33658"/><rect fill="#aade63" height="9.51161" rx="4" transform="matrix(.93358043 .35836795 -.35836795 .93358043 3.711524 -2.00231)" width="23.026" x="7.25751" y="9.01164"/><path clip-rule="evenodd" d="m11.0596 9.48977c-2.06243-.79169-4.37613.23843-5.16781 2.30083l-.27344.7123c.83332-1.9833 3.09767-2.95914 5.12035-2.1827l14.3533 5.5097c2.0625.7917 3.0926 3.1054 2.3009 5.1678l-1.2624 3.2886c.0164-.0389.0322-.0783.0475-.118l1.5358-4.001c.7917-2.0624-.2385-4.3761-2.3009-5.1678z" fill="#d6f4bc" fill-rule="evenodd"/><ellipse cx="8.73906" cy="14.6924" fill="#7ace00" rx="1.39551" ry="1.40913" transform="matrix(.93358043 .35836795 -.35836795 .93358043 5.84573 -2.155936)"/><ellipse cx="23.8639" cy="20.4625" fill="#7ace00" rx="1.39551" ry="1.40913" transform="matrix(.93358043 .35836795 -.35836795 .93358043 8.918134 -7.192946)"/><ellipse cx="16.3936" cy="17.7263" fill="#7ace00" rx="3.48878" ry="3.52282" transform="matrix(.93358043 .35836795 -.35836795 .93358043 7.441394 -4.697568)"/><path clip-rule="evenodd" d="m17.9849 18.6784c.0043-.1186-.012-.2372-.0489-.3556s-.0958-.2332-.1754-.3479c-.0808-.1113-.185-.2154-.3125-.3125-.0521-.036-.1396-.0976-.2604-.1801-.1136-.0797-.2379-.1635-.3645-.2522s-.2402-.1683-.3443-.2404c-.1006-.0707-.1598-.1094-.1764-.1198-.1383-.1012-.2411-.2089-.3072-.3264-.0661-.1176-.0698-.2474-.0162-.3871.0389-.1014.0962-.1756.172-.2227.0757-.0471.1605-.0747.2555-.0863.0938-.0081.1907-.003.2907.0153.1001.0184.1974.0437.2872.0782.2656.102.4645.2385.5952.4129.1321.171.1579.3934.0816.6568l.7682.2949c.0805-.2097.1049-.4128.0755-.6045s-.0991-.3748-.2119-.5424-.2614-.3169-.441-.45c-.0781-.054-.1625-.1024-.2505-.1522l.1462-.3809c.0738-.1922-.0274-.4115-.2248-.4873-.1975-.0758-.4194.0195-.4932.2117l-.1448.3774c-.0866-.0212-.1745-.039-.2616-.0483-.2113-.029-.4118-.0218-.5987.0147-.1884.04-.3574.1154-.5071.2263-.151.1145-.2647.2713-.3412.4705-.0402.1048-.0648.2116-.0714.3254-.0065.1137.0075.2274.048.3472s.1066.2373.2041.3589c.0975.1217.2326.2417.4019.3588.2769.1905.509.3477.6985.4766.1907.1253.3501.2467.4893.3562.0777.0659.1411.1464.1883.2487.0476.1025.044.2298-.0149.3832-.0281.0734-.0742.1399-.1347.2009-.0605.0609-.1386.1035-.2353.1301-.0969.027-.2077.0366-.3431.0247-.1319-.0105-.2822-.0482-.451-.1129-.1543-.0593-.2948-.1333-.4156-.2157-.1207-.0824-.2191-.1803-.2978-.2863-.0772-.1102-.1226-.2279-.1385-.3583-.0158-.1304.0051-.2707.064-.4241l-.7647-.2935c-.0916.2495-.1231.4816-.0923.7019.0272.2189.1037.4166.2245.5953.1209.1787.2776.3391.4788.4805.0874.062.1849.1191.2836.173l-.1462.3809c-.0737.1922.0274.4115.2249.4873.1974.0757.4193-.0195.4931-.2117l.1409-.3669c.1117.0309.2297.0561.3432.0716.2256.0345.4405.0328.6445-.0052.2041-.0379.3865-.1162.547-.235.1611-.1182.2853-.2914.3712-.5151.0414-.1079.0638-.22.0682-.3386z" fill="#fff" fill-rule="evenodd"/><rect fill="#629d00" height="11.9776" rx="4" stroke="#629d00" transform="matrix(.61566148 .78801075 -.78801075 .61566148 7.543068 -13.465581)" width="25.1192" x="17.5758" y="1"/><rect fill="#69c800" height="11.9776" rx="4" transform="matrix(.61566148 .78801075 -.78801075 .61566148 7.543068 -13.465581)" width="25.1192" x="17.5758" y="1"/><rect fill="#aade63" height="9.51161" rx="4" transform="matrix(.61566148 .78801075 -.78801075 .61566148 8.804198 -12.533461)" width="23.026" x="17.2508" y="2.75891"/><path clip-rule="evenodd" d="m20.2636 5.12695c-1.3601-1.74082-3.8739-2.04948-5.6147-.6894l-.6015.46995c1.7358-1.27109 4.1795-.94137 5.5134.76599l9.4655 12.11531c1.3601 1.7408 1.0515 4.2546-.6894 5.6147l-2.7756 2.1685c.0341-.0249.0678-.0504.1013-.0766l3.3771-2.6385c1.7408-1.36 2.0495-3.8738.6894-5.6147z" fill="#d6f4bc" fill-rule="evenodd"/><ellipse cx="15.595" cy="8.3913" fill="#7ace00" rx="1.39551" ry="1.40913" transform="matrix(.61566148 .78801075 -.78801075 .61566148 12.606194 -9.063928)"/><ellipse cx="25.5876" cy="21.1272" fill="#7ace00" rx="1.39551" ry="1.40913" transform="matrix(.61566148 .78801075 -.78801075 .61566148 26.482761 -12.043307)"/><ellipse cx="20.5935" cy="14.9343" fill="#7ace00" rx="3.48878" ry="3.52282" transform="matrix(.61566148 .78801075 -.78801075 .61566148 19.683264 -10.488073)"/><path clip-rule="evenodd" d="m21.4672 16.5699c.0648-.0994.1119-.2094.1413-.3299.0293-.1205.0379-.2493.0289-.3886-.0121-.137-.0477-.2799-.107-.4288-.0261-.0577-.0694-.1556-.1304-.2885-.0564-.1268-.1198-.2627-.1826-.4039s-.1192-.268-.1713-.3834c-.0498-.1124-.0806-.1761-.0895-.1936-.0664-.1579-.0991-.3032-.0952-.438s.0675-.2479.1855-.3401c.0855-.0668.1729-.1009.2621-.1023.0892-.0013.176.0186.2635.0576.0845.0414.1649.0956.2412.1629s.1467.1391.2059.2149c.1752.2242.2754.4436.2976.6605.0251.2146-.0673.4186-.2684.605l.5066.6484c.177-.1383.3026-.2998.3761-.4792.0736-.1795.1081-.3724.0977-.5741-.0103-.2018-.0609-.4063-.1463-.6128-.0391-.0866-.0865-.1715-.1362-.2595l.3215-.2512c.1622-.1268.1884-.3668.0582-.5335s-.3695-.1993-.5317-.0726l-.3186.2489c-.0633-.0628-.1295-.1232-.1993-.1761-.1662-.1337-.3417-.2307-.5208-.2958-.182-.0627-.3658-.0851-.5512-.0671-.1884.0203-.3666.0962-.5348.2275-.0884.0691-.1645.1481-.2287.2422-.0643.0941-.1108.1987-.1377.3223-.027.1235-.0309.2583-.01.4128.0209.1544.0749.3269.1597.5145.1393.3059.2572.5603.3533.7683.0989.2057.1731.3917.2359.5573.0327.0965.0456.1982.0334.3102-.012.1123-.0807.2196-.2101.3208-.062.0484-.1358.0816-.219.1028-.0832.0211-.1721.0173-.2688-.0097-.0969-.0267-.1968-.0755-.3067-.1555-.1077-.077-.2171-.1867-.3284-.3291-.1018-.1303-.1841-.266-.2452-.3989-.061-.1328-.0949-.2674-.1078-.3988-.0094-.1342.0123-.2585.0658-.3784.0536-.1199.1438-.2295.2733-.3306l-.5043-.6454c-.207.1666-.3535.3494-.4406.554-.0895.2017-.1257.4106-.1142.626.0116.2154.0633.4337.1629.6584.043.0982.0972.1973.1541.2944l-.3215.2512c-.1623.1268-.1885.3668-.0582.5335.1302.1666.3694.1993.5316.0726l.3097-.242c.0799.084.1681.1664.2574.2381.1756.1458.3607.255.5551.3276.1944.0725.3912.0994.5899.0802.199-.0183.3947-.1028.5834-.2503.0912-.0712.1681-.1557.2329-.2552z" fill="#fff" fill-rule="evenodd"/></svg>

<svg viewBox="0 0 34 31" fill="none" xmlns="http://www.w3.org/2000/svg">
<g id="Money Icon">
<ellipse id="Oval" rx="15.5165" ry="2.31097" transform="matrix(1 0 0 -1 15.5165 27.9595)" fill="#EFF2F4"/>
<g id="Group 21">
<rect id="Rectangle" x="1.32056" y="15.0841" width="25.0905" height="12.1968" rx="4" fill="#629D00" stroke="#629D00"/>
<rect id="Rectangle_2" x="1.32056" y="15.0841" width="25.0905" height="12.1968" rx="4" fill="#69C800"/>
<rect id="Rectangle_3" x="2.50513" y="16.4476" width="22.9997" height="9.68568" rx="4" fill="#AADE63"/>
<path id="Combined Shape" fill-rule="evenodd" clip-rule="evenodd" d="M6.22638 15.5146C4.01724 15.5146 2.22638 17.3055 2.22638 19.5146V20.2946C2.29322 18.1441 4.05762 16.4212 6.22442 16.4212H21.5722C23.7814 16.4212 25.5722 18.2121 25.5722 20.4212V24.1516C25.5735 24.1096 25.5742 24.0674 25.5742 24.0251V19.5146C25.5742 17.3055 23.7833 15.5146 21.5742 15.5146H6.22638Z" fill="#D6F4BC"/>
<ellipse id="Oval_2" cx="5.92016" cy="21.3074" rx="1.39392" ry="1.43492" fill="#7ACE00"/>
<ellipse id="Oval_3" cx="22.0898" cy="21.2734" rx="1.39392" ry="1.43492" fill="#7ACE00"/>
<ellipse id="Oval_4" cx="14.1441" cy="21.3984" rx="3.4848" ry="3.58729" fill="#7ACE00"/>
<path id="Fill 1" fill-rule="evenodd" clip-rule="evenodd" d="M15.9689 21.7227C15.9305 21.6084 15.8728 21.5016 15.796 21.4025C15.7192 21.3034 15.6232 21.2158 15.508 21.1357C15.3927 21.0595 15.2583 20.9985 15.1047 20.9528C15.0432 20.9375 14.9395 20.9109 14.7974 20.8766C14.6629 20.8423 14.517 20.8079 14.3672 20.7698C14.2174 20.7317 14.083 20.6974 13.96 20.6669C13.841 20.6364 13.7718 20.6212 13.7526 20.6174C13.5875 20.5716 13.453 20.5068 13.3493 20.4192C13.2456 20.3315 13.1957 20.2095 13.1957 20.0571C13.1957 19.9466 13.2226 19.8551 13.2764 19.7827C13.3301 19.7102 13.3993 19.6531 13.4838 19.6073C13.5683 19.5654 13.6605 19.5349 13.7603 19.5159C13.8602 19.4968 13.96 19.4854 14.0561 19.4854C14.3403 19.4854 14.5746 19.5425 14.759 19.6607C14.9433 19.775 15.047 19.977 15.0701 20.2553H15.892C15.892 20.0266 15.8421 19.8246 15.7461 19.6531C15.6501 19.4815 15.5195 19.3329 15.3543 19.2147C15.1892 19.0966 14.9971 19.0089 14.782 18.9479C14.6898 18.9251 14.5938 18.9098 14.4939 18.8946V18.4791C14.4939 18.2695 14.3211 18.098 14.1098 18.098C13.8986 18.098 13.7257 18.2695 13.7257 18.4791V18.8908C13.6374 18.9022 13.5491 18.9174 13.4646 18.9403C13.2572 18.9899 13.0728 19.0699 12.9115 19.1728C12.7501 19.2795 12.6196 19.4129 12.5197 19.573C12.4198 19.7369 12.3699 19.9275 12.3699 20.1447C12.3699 20.2591 12.3853 20.3696 12.4198 20.4802C12.4544 20.5907 12.5082 20.6936 12.5888 20.7927C12.6695 20.8918 12.7732 20.9795 12.9076 21.0595C13.0421 21.1395 13.2111 21.2043 13.4108 21.2539C13.7373 21.3339 14.01 21.3987 14.2328 21.4521C14.4555 21.5016 14.6476 21.5588 14.8166 21.6122C14.9126 21.6465 15.0006 21.6998 15.0812 21.7799C15.1623 21.8599 15.2045 21.9823 15.2045 22.1496C15.2045 22.2296 15.1853 22.3097 15.1507 22.3897C15.1162 22.4698 15.0586 22.5388 14.9779 22.5994C14.8972 22.6603 14.7974 22.7099 14.6668 22.748C14.54 22.7861 14.3864 22.8052 14.2059 22.8052C14.0407 22.8052 13.8832 22.7861 13.7411 22.7518C13.599 22.7175 13.4722 22.6603 13.3609 22.5883C13.2495 22.5117 13.165 22.4164 13.1035 22.2982C13.0421 22.1801 13.0113 22.0391 13.0113 21.8717H12.1932C12.197 22.1424 12.2508 22.3745 12.3584 22.5727C12.4621 22.7709 12.6042 22.931 12.7809 23.0567C12.9576 23.1825 13.1611 23.2778 13.3993 23.3388C13.503 23.3658 13.6144 23.3845 13.7257 23.3998V23.8152C13.7257 24.0249 13.8986 24.1964 14.1098 24.1964C14.3211 24.1964 14.4939 24.0249 14.4939 23.8152V23.415C14.6092 23.4036 14.7282 23.3845 14.8396 23.3578C15.0624 23.3083 15.2621 23.2282 15.4388 23.1177C15.6155 23.0072 15.7576 22.8662 15.8648 22.6946C15.9727 22.5235 16.0265 22.3135 16.0265 22.0696C16.0265 21.9518 16.0073 21.8371 15.9689 21.7227Z" fill="white"/>
</g>
<g id="Group 21_2">
<rect id="Rectangle_4" x="6.63019" y="7.33658" width="25.1192" height="11.9776" rx="4" transform="rotate(21 6.63019 7.33658)" fill="#629D00" stroke="#629D00"/>
<rect id="Rectangle_5" x="6.63019" y="7.33658" width="25.1192" height="11.9776" rx="4" transform="rotate(21 6.63019 7.33658)" fill="#69C800"/>
<rect id="Rectangle_6" x="7.25751" y="9.01164" width="23.026" height="9.51161" rx="4" transform="rotate(21 7.25751 9.01164)" fill="#AADE63"/>
<path id="Combined Shape_2" fill-rule="evenodd" clip-rule="evenodd" d="M11.0596 9.48977C8.99717 8.69808 6.68347 9.7282 5.89179 11.7906L5.61835 12.5029C6.45167 10.5196 8.71602 9.54376 10.7387 10.3202L25.092 15.8299C27.1545 16.6216 28.1846 18.9353 27.3929 20.9977L26.1305 24.2863C26.1469 24.2474 26.1627 24.208 26.178 24.1683L27.7138 20.1673C28.5055 18.1049 27.4753 15.7912 25.4129 14.9995L11.0596 9.48977Z" fill="#D6F4BC"/>
<ellipse id="Oval_5" cx="8.73906" cy="14.6924" rx="1.39551" ry="1.40913" transform="rotate(21 8.73906 14.6924)" fill="#7ACE00"/>
<ellipse id="Oval_6" cx="23.8639" cy="20.4625" rx="1.39551" ry="1.40913" transform="rotate(21 23.8639 20.4625)" fill="#7ACE00"/>
<ellipse id="Oval_7" cx="16.3936" cy="17.7263" rx="3.48878" ry="3.52282" transform="rotate(21 16.3936 17.7263)" fill="#7ACE00"/>
<path id="Fill 1_2" fill-rule="evenodd" clip-rule="evenodd" d="M17.9849 18.6784C17.9892 18.5598 17.9729 18.4412 17.936 18.3228C17.8991 18.2044 17.8402 18.0896 17.7606 17.9749C17.6798 17.8636 17.5756 17.7595 17.4481 17.6624C17.396 17.6264 17.3085 17.5648 17.1877 17.4823C17.0741 17.4026 16.9498 17.3188 16.8232 17.2301C16.6966 17.1414 16.583 17.0618 16.4789 16.9897C16.3783 16.919 16.3191 16.8803 16.3025 16.8699C16.1642 16.7687 16.0614 16.661 15.9953 16.5435C15.9292 16.4259 15.9255 16.2961 15.9791 16.1564C16.018 16.055 16.0753 15.9808 16.1511 15.9337C16.2268 15.8866 16.3116 15.859 16.4066 15.8474C16.5004 15.8393 16.5973 15.8444 16.6973 15.8627C16.7974 15.8811 16.8947 15.9064 16.9845 15.9409C17.2501 16.0429 17.449 16.1794 17.5797 16.3538C17.7118 16.5248 17.7376 16.7472 17.6613 17.0106L18.4295 17.3055C18.51 17.0958 18.5344 16.8927 18.505 16.701C18.4756 16.5093 18.4059 16.3262 18.2931 16.1586C18.1803 15.991 18.0317 15.8417 17.8521 15.7086C17.774 15.6546 17.6896 15.6062 17.6016 15.5564L17.7478 15.1755C17.8216 14.9833 17.7204 14.764 17.523 14.6882C17.3255 14.6124 17.1036 14.7077 17.0298 14.8999L16.885 15.2773C16.7984 15.2561 16.7105 15.2383 16.6234 15.229C16.4121 15.2 16.2116 15.2072 16.0247 15.2437C15.8363 15.2837 15.6673 15.3591 15.5176 15.47C15.3666 15.5845 15.2529 15.7413 15.1764 15.9405C15.1362 16.0453 15.1116 16.1521 15.105 16.2659C15.0985 16.3796 15.1125 16.4933 15.153 16.6131C15.1935 16.7329 15.2596 16.8504 15.3571 16.972C15.4546 17.0937 15.5897 17.2137 15.759 17.3308C16.0359 17.5213 16.268 17.6785 16.4575 17.8074C16.6482 17.9327 16.8076 18.0541 16.9468 18.1636C17.0245 18.2295 17.0879 18.31 17.1351 18.4123C17.1827 18.5148 17.1791 18.6421 17.1202 18.7955C17.0921 18.8689 17.046 18.9354 16.9855 18.9964C16.925 19.0573 16.8469 19.0999 16.7502 19.1265C16.6533 19.1535 16.5425 19.1631 16.4071 19.1512C16.2752 19.1407 16.1249 19.103 15.9561 19.0383C15.8018 18.979 15.6613 18.905 15.5405 18.8226C15.4198 18.7402 15.3214 18.6423 15.2427 18.5363C15.1655 18.4261 15.1201 18.3084 15.1042 18.178C15.0884 18.0476 15.1093 17.9073 15.1682 17.7539L14.4035 17.4604C14.3119 17.7099 14.2804 17.942 14.3112 18.1623C14.3384 18.3812 14.4149 18.5789 14.5357 18.7576C14.6566 18.9363 14.8133 19.0967 15.0145 19.2381C15.1019 19.3001 15.1994 19.3572 15.2981 19.4111L15.1519 19.792C15.0782 19.9842 15.1793 20.2035 15.3768 20.2793C15.5742 20.355 15.7961 20.2598 15.8699 20.0676L16.0108 19.7007C16.1225 19.7316 16.2405 19.7568 16.354 19.7723C16.5796 19.8068 16.7945 19.8051 16.9985 19.7671C17.2026 19.7292 17.385 19.6509 17.5455 19.5321C17.7066 19.4139 17.8308 19.2407 17.9167 19.017C17.9581 18.9091 17.9805 18.797 17.9849 18.6784Z" fill="white"/>
</g>
<g id="Group 21_3">
<rect id="Rectangle_7" x="17.5758" y="1" width="25.1192" height="11.9776" rx="4" transform="rotate(52 17.5758 1)" fill="#629D00" stroke="#629D00"/>
<rect id="Rectangle_8" x="17.5758" y="1" width="25.1192" height="11.9776" rx="4" transform="rotate(52 17.5758 1)" fill="#69C800"/>
<rect id="Rectangle_9" x="17.2508" y="2.75891" width="23.026" height="9.51161" rx="4" transform="rotate(52 17.2508 2.75891)" fill="#AADE63"/>
<path id="Combined Shape_3" fill-rule="evenodd" clip-rule="evenodd" d="M20.2636 5.12695C18.9035 3.38613 16.3897 3.07747 14.6489 4.43755L14.0474 4.9075C15.7832 3.63641 18.2269 3.96613 19.5608 5.67349L29.0263 17.7888C30.3864 19.5296 30.0778 22.0434 28.3369 23.4035L25.5613 25.572C25.5954 25.5471 25.6291 25.5216 25.6626 25.4954L29.0397 22.8569C30.7805 21.4969 31.0892 18.9831 29.7291 17.2422L20.2636 5.12695Z" fill="#D6F4BC"/>
<ellipse id="Oval_8" cx="15.595" cy="8.3913" rx="1.39551" ry="1.40913" transform="rotate(52 15.595 8.3913)" fill="#7ACE00"/>
<ellipse id="Oval_9" cx="25.5876" cy="21.1272" rx="1.39551" ry="1.40913" transform="rotate(52 25.5876 21.1272)" fill="#7ACE00"/>
<ellipse id="Oval_10" cx="20.5935" cy="14.9343" rx="3.48878" ry="3.52282" transform="rotate(52 20.5935 14.9343)" fill="#7ACE00"/>
<path id="Fill 1_3" fill-rule="evenodd" clip-rule="evenodd" d="M21.4672 16.5699C21.532 16.4705 21.5791 16.3605 21.6085 16.24C21.6378 16.1195 21.6464 15.9907 21.6374 15.8514C21.6253 15.7144 21.5897 15.5715 21.5304 15.4226C21.5043 15.3649 21.461 15.267 21.4 15.1341C21.3436 15.0073 21.2802 14.8714 21.2174 14.7302C21.1546 14.589 21.0982 14.4622 21.0461 14.3468C20.9963 14.2344 20.9655 14.1707 20.9566 14.1532C20.8902 13.9953 20.8575 13.85 20.8614 13.7152C20.8653 13.5804 20.9289 13.4673 21.0469 13.3751C21.1324 13.3083 21.2198 13.2742 21.309 13.2728C21.3982 13.2715 21.485 13.2914 21.5725 13.3304C21.657 13.3718 21.7374 13.426 21.8137 13.4933C21.89 13.5606 21.9604 13.6324 22.0196 13.7082C22.1948 13.9324 22.295 14.1518 22.3172 14.3687C22.3423 14.5833 22.2499 14.7873 22.0488 14.9737L22.5554 15.6221C22.7324 15.4838 22.858 15.3223 22.9315 15.1429C23.0051 14.9634 23.0396 14.7705 23.0292 14.5688C23.0189 14.367 22.9683 14.1625 22.8829 13.956C22.8438 13.8694 22.7964 13.7845 22.7467 13.6965L23.0682 13.4453C23.2304 13.3185 23.2566 13.0785 23.1264 12.9118C22.9962 12.7451 22.7569 12.7125 22.5947 12.8392L22.2761 13.0881C22.2128 13.0253 22.1466 12.9649 22.0768 12.912C21.9106 12.7783 21.7351 12.6813 21.556 12.6162C21.374 12.5535 21.1902 12.5311 21.0048 12.5491C20.8164 12.5694 20.6382 12.6453 20.47 12.7766C20.3816 12.8457 20.3055 12.9247 20.2413 13.0188C20.177 13.1129 20.1305 13.2175 20.1036 13.3411C20.0766 13.4646 20.0727 13.5994 20.0936 13.7539C20.1145 13.9083 20.1685 14.0808 20.2533 14.2684C20.3926 14.5743 20.5105 14.8287 20.6066 15.0367C20.7055 15.2424 20.7797 15.4284 20.8425 15.594C20.8752 15.6905 20.8881 15.7922 20.8759 15.9042C20.8639 16.0165 20.7952 16.1238 20.6658 16.225C20.6038 16.2734 20.53 16.3066 20.4468 16.3278C20.3636 16.3489 20.2747 16.3451 20.178 16.3181C20.0811 16.2914 19.9812 16.2426 19.8713 16.1626C19.7636 16.0856 19.6542 15.9759 19.5429 15.8335C19.4411 15.7032 19.3588 15.5675 19.2977 15.4346C19.2367 15.3018 19.2028 15.1672 19.1899 15.0358C19.1805 14.9016 19.2022 14.7773 19.2557 14.6574C19.3093 14.5375 19.3995 14.4279 19.529 14.3268L19.0247 13.6814C18.8177 13.848 18.6712 14.0308 18.5841 14.2354C18.4946 14.4371 18.4584 14.646 18.4699 14.8614C18.4815 15.0768 18.5332 15.2951 18.6328 15.5198C18.6758 15.618 18.73 15.7171 18.7869 15.8142L18.4654 16.0654C18.3031 16.1922 18.2769 16.4322 18.4072 16.5989C18.5374 16.7655 18.7766 16.7982 18.9388 16.6715L19.2485 16.4295C19.3284 16.5135 19.4166 16.5959 19.5059 16.6676C19.6815 16.8134 19.8666 16.9226 20.061 16.9952C20.2554 17.0677 20.4522 17.0946 20.6509 17.0754C20.8499 17.0571 21.0456 16.9726 21.2343 16.8251C21.3255 16.7539 21.4024 16.6694 21.4672 16.5699Z" fill="white"/>
</g>
</g>
</svg>
